X:1
T:Let's dink and let's sing together
T:Let's drink and let's sing together
T:A Canon 4 in 1 by Dr. Hayes
L:1/8
Q:1/4=80
M:6/8
K:A
V:1 treble nm="Vokal" snm="St."
V:1
"^1" z z A, A3- | A B A (GF) G |"^2" A3 A,2 A | B2 B (BA) B |"^3" c3 C2 C | D2 D E2 E | %6
w: Let's drink|_ and let's sing _ to-|geth- er, in|spite of Wind _ or|Weath- er, for|here true joy is|
"^4" A,3 E3 | F2 f e2 d | c2 E A3- | A3/2 G/ F (G/A/B) G | E3 c e c | B3 B d B | A3 C3 | %13
w: found, so|let the Toast go|round, Come here's|_ to all hon- * * est|Men: fill up your|Glass, fill up your|Glass, drink|
 D2 D E2 E | A,3 z3 | z3 z3 :| %16
w: fair or drink a-|gain.||

